X: 13
T: Menuett fr\aan Oravais
T: Oravaisten Menuetti
Z: John Chambers <jc@trillian.mit.edu>
N: Oravais is a small town on the west coast of Finland, north of Vaasa.
R: minuet
M: 3/4
L: 1/8
K: Dm
|: "Dm"A>A Ac "Gm"BG | "Dm"AF "A7"F/E/^C/E/ "Dm"D2 \
|  "Dm"d>^c de fd | "Gm"ed ^cd "A7"A2 |
|  "Dm"A>A Ac "Gm"BG | "Dm"AF "A7"F/E/^C/E/ "Dm"DE \
|  F/E/F/G/ AA FF | "A7"EE "Dm"D4 :|
|: "F"C>F FE "Bb"D2 | "C7"C>c cB "F"A2 \
| A>B cB AA | "C7"GG "F"F4 |
|  "Dm"A>A Ac "Gm"BG | "Dm"AF "A7"F/E/^C/E/ "Dm"DE \
|  F/E/F/G/ AA FF | "A7"EE "Dm"D4 :|
%%sep 2 1 500
%%sep 2 1 500
